X:1
T:Friendship with Jesus, CM refrain
T:Arranged from Stephen Foster (1826-1864)
T:Friendship with Jesus, CM refrain
T:Public Domain
C:Arranged from Stephen Foster (1826-1864)
Z:Public Domain
%%score ( 1 2 ) ( 3 4 )
L:1/8
M:4/4
K:C
V:1 treble 
V:2 treble 
V:3 bass 
V:4 bass 
V:1
 ([CE][DF]) | [EG]3 [FA] [EG][CE][CD]C | [Cc]6 (BA) | [EG]2 [CE]2 [CE]2 C2 | [B,D]6 [CE][DF] | %5
 [EG]3 [FA] [EG][CE][CD]C | [Fc]6 [GB][FA] | [EG]2 [CE]2 [B,E]2 [B,D]2 | C8 || [Ec]4 [FB]2 [FA]2 | %10
 [EG]4 [CE]4 | [CA]2 [CG]2 [CE]2 C2 | [B,D]8 | [CG]3 [CA] [CG][CE][CD]C | [Cc]4 [FA]4 | %15
 [CG][CE]C[CD] [CE]2 [B,D]2 | [G,C]8 |] %17
V:2
 x2 | x8 | x6 F2 | x6 C2 | x8 | x8 | x8 | x8 | C8 || x8 | x8 | x6 C2 | x8 | x8 | x8 | x8 | x8 |] %17
V:3
 [C,G,]2 | [C,C]3 [C,C] [C,C][C,G,][D,G,][E,G,] | [F,A,]6 (B,C) | [C,C]2 [C,G,]2 [C,G,]2 [C,E,]2 | %4
 [G,,G,]6 [C,G,]2 | [C,C]3 [C,C] [C,C][C,G,][D,G,][E,G,] | [F,A,]6 [F,C]2 | %7
 [C,C]2 [C,G,]2 [G,,G,]2 [G,,F,]2 | [C,E,]8 || [C,G,]4 [C,A,]2 [C,C]2 | [C,C]4 [C,G,]4 | %11
 F,2 [E,G,]2 [C,G,]2 [C,E,]2 | [G,,G,]8 | [C,E,]3 [C,F,] [C,E,][C,G,][D,G,][E,G,] | %14
 [F,A,]4 [F,C]4 | [E,C][C,G,][A,,^F,][_A,,F,] [G,,G,]2 [G,,=F,]2 | [C,E,]8 |] %17
V:4
 x2 | x8 | x6 F,2 | x8 | x8 | x8 | x8 | x8 | x8 || x8 | x8 | F,2 x6 | x8 | x8 | x8 | x8 | x8 |] %17

